X: 1
T: Fiddlin' David Reel
C: Eric Scott
O: Princeton, New Jersey
%R: march
Z: Collected and edited 2014 by John Chambers <jc:trillian.mit.edu>
B: GEMS The Best of the Country Dance and Song Society Diamond Jubilee Music, Dance and Song Contest 1993 p.68 #1
M: C
L: 1/8
K: Em
% - - - - - - - - - - - - - - - - - - - - - - - - -
EG |\
"Em"B>c "Em/D"BA "C"GE- "C/B"EG | "Am"EF "Em/G"E>B, "D"D2- "D/F#"DD |\
"G"GF "G/F#"G>A "Em"BA "Em/F#"B>c |  "G"BA "Em"GE "Bm"B,2 "Em"EG |
"Em"B>c "Em/D"BA "C"GE- "C/B"EG | "Am"EF "Em/G"E>B, "D/F#"D2- "D"DD |\
"G"GA "Em"B>c "Bm/F#"dB "Am"ce | "Em"dc "Bm"Bc "D"d2 ||[K:E]
"B7/D#"B2 |\
"Em"e<B "B7"f2 "E"eB- BB | "E"ef "B"gf "E"e3 e |\
"A"c2 c2 "E/G#"B2 e>d | "A"cB "F#m/A"AG "B7"FB- "B7/D#"BB |
"Em"e<B "B7"f2 "E"eB- BB | "E"ef "B"gf "E"e3 e |\
"A"ag f"^>"a "E"gf "E#m"g/f/e/c/ | "E"B<G "B"B>B "D"E2 |]
% - - - - - - - - - - - - - - - - - - - - - - - - -
